icon-themes/sifr_svg/cmd/lc_printersetup.svg

<svg viewBox="0 0 24 24" xmlns="http://www.w3.org/2000/svg"><path d="m7 4v3h10v-3zm-4 4c-.554 0-1 .446-1 1v6c0 .554.446 1 1 1h3v-2h3 3.001953 2.908203c.054018-.15611.089626-.321507.089844-.498047-.000738-.47218-.221864-.913959-.599609-1.197265l-.400391-.300782v-2.003906-1h3.277344l.292968.2988281c1.492018 1.5199369 2.001954 3.1419129 2.001954 4.8164059v1.884766h1.427734c.554 0 1-.446 1-1v-6c0-.554-.446-1-1-1zm12 2v1.503906c.628416.471311.998772 1.210576 1 1.996094 0 1.380712-1.119288 2.5-2.5 2.5-.786206-.000614-1.526324-.371035-1.998047-1h-1.501953v1.857422c1.371429 1.321851 2.804414 1.714844 4.115234 1.714844h2.742188l3.427734 3.427734h1.714844v-1.714844l-3.427734-3.427734v-2.742188c0-1.511964-.368607-2.743805-1.714844-4.115234zm-8 5v6h10v-.871094l-.556641-.55664h-2.328125c-1.510691 0-3.257867-.499474-4.8085934-1.994141l-.3066406-.294922v-2.283203z" fill="#555753"/></svg>

<svg xmlns="http://www.w3.org/2000/svg" viewBox="0 0 24 24">
  <path
     style="fill:#555753"
     d="M 7 4 L 7 7 L 17 7 L 17 4 L 7 4 z M 3 8 C 2.446 8 2 8.446 2 9 L 2 15 C 2 15.554 2.446 16 3 16 L 6 16 L 6 14 L 9 14 L 12.001953 14 L 14.910156 14 C 14.964174 13.84389 14.999782 13.678493 15 13.501953 C 14.999262 13.029773 14.778136 12.587994 14.400391 12.304688 L 14 12.003906 L 14 10 L 14 9 L 17.277344 9 L 17.570312 9.2988281 C 19.06233 10.818765 19.572266 12.440741 19.572266 14.115234 L 19.572266 16 L 21 16 C 21.554 16 22 15.554 22 15 L 22 9 C 22 8.446 21.554 8 21 8 L 3 8 z M 15 10 L 15 11.503906 C 15.628416 11.975217 15.998772 12.714482 16 13.5 C 16 14.880712 14.880712 16 13.5 16 C 12.713794 15.999386 11.973676 15.628965 11.501953 15 L 10 15 L 10 16.857422 C 11.371429 18.179273 12.804414 18.572266 14.115234 18.572266 L 16.857422 18.572266 L 20.285156 22 L 22 22 L 22 20.285156 L 18.572266 16.857422 L 18.572266 14.115234 C 18.572266 12.60327 18.203659 11.371429 16.857422 10 L 15 10 z M 7 15 L 7 21 L 17 21 L 17 20.128906 L 16.443359 19.572266 L 14.115234 19.572266 C 12.604543 19.572266 10.857367 19.072792 9.3066406 17.578125 L 9 17.283203 L 9 15 L 7 15 z "
     />
</svg>
